Resources/DefaultStyle.bundle/poi_hotel.svg

<svg width="18" height="18" viewBox="0 0 18 18" fill="none" xmlns="http://www.w3.org/2000/svg">
<circle cx="9" cy="9" r="8.5" fill="#808080" stroke="white"/>
<path d="M4 5.5C4 5.22386 4.22386 5 4.5 5C4.77614 5 5 5.22386 5 5.5V9H9V8C9 7.44772 9.44772 7 10 7H13C13.5523 7 14 7.44772 14 8V12.5C14 12.7761 13.7761 13 13.5 13C13.2239 13 13 12.7761 13 12.5V11.5H5V12.5C5 12.7761 4.77614 13 4.5 13C4.22386 13 4 12.7761 4 12.5V5.5Z" fill="white"/>
<path d="M5.5 7.5C5.5 7.22386 5.72386 7 6 7H7.5C7.77614 7 8 7.22386 8 7.5V8C8 8.27614 7.77614 8.5 7.5 8.5H6C5.72386 8.5 5.5 8.27614 5.5 8V7.5Z" fill="white"/>
</svg>

<svg width="18" height="18" viewBox="0 0 18 18" fill="none" xmlns="http://www.w3.org/2000/svg">
  <circle cx="9" cy="9" r="8.5" fill="gray" stroke="#fff"/>
  <path d="M4 5.5a.5.5 0 0 1 1 0V9h4V8a1 1 0 0 1 1-1h3a1 1 0 0 1 1 1v4.5a.5.5 0 0 1-1 0v-1H5v1a.5.5 0 0 1-1 0z" fill="#fff"/>
  <path d="M5.5 7.5A.5.5 0 0 1 6 7h1.5a.5.5 0 0 1 .5.5V8a.5.5 0 0 1-.5.5H6a.5.5 0 0 1-.5-.5z" fill="#fff"/>
</svg>
